X:5816
T:Gan Ainm
M:4/4
L:1/8
R:German
D:Mairead Ni Mhaonaigh/Frankie Kennedy, Ceol Aduaidh
K:D
FG|ABAF A2de|fgfe d2A2|BcdB ABAF|G2~E2E2FG|ABAF A2de|\
fgfe d2A2|BcdB ABAG|F2~D2D2::g2|fefg afde|fefg a2f2|\
gabg fgaf|edef e2FG|ABAF A2de|fgfe d2A2|BcdB ABAG|F2~D2D2:|


